src/icons/github.svg

<svg width="24" height="24" viewBox="0 0 24 24" xmlns="http://www.w3.org/2000/svg" fill="currentColor"><path d="M12 0C9.62663 0 7.30656 0.703788 5.33316 2.02237C3.35977 3.34094 1.8217 5.21509 0.913451 7.4078C0.00519944 9.60052 -0.232441 12.0133 0.230582 14.3411C0.693605 16.6689 1.83649 18.8071 3.51473 20.4853C5.19296 22.1635 7.33115 23.3064 9.65893 23.7694C11.9867 24.2325 14.3995 23.9948 16.5922 23.0866C18.7849 22.1783 20.6591 20.6402 21.9776 18.6669C23.2962 16.6935 24 14.3734 24 12C24 8.81741 22.7357 5.76516 20.4853 3.51472C18.2349 1.26428 15.1826 0 12 0ZM15.1629 21.7834H15.0703C15.0004 21.7873 14.9304 21.7768 14.8646 21.7526C14.7989 21.7284 14.7388 21.6911 14.688 21.6429C14.6411 21.5933 14.6044 21.5349 14.5803 21.471C14.5562 21.4071 14.545 21.3391 14.5474 21.2709V19.8652C14.5543 19.3977 14.5577 18.9257 14.5577 18.4492C14.5562 18.1009 14.5055 17.7546 14.4069 17.4206C14.3135 17.0834 14.1256 16.78 13.8652 16.5463C14.5623 16.4789 15.2475 16.3204 15.9034 16.0749C16.4565 15.8646 16.9568 15.5357 17.3692 15.1114C17.7759 14.6838 18.0786 14.1682 18.2537 13.6046C18.4668 12.9154 18.5681 12.1966 18.5537 11.4754C18.5574 10.9717 18.4691 10.4715 18.2932 9.99943C18.1149 9.52375 17.8452 9.08755 17.4994 8.71543C17.5737 8.52741 17.6277 8.33202 17.6606 8.13258C17.6942 7.9332 17.7108 7.73133 17.7103 7.52915C17.7106 7.26885 17.6807 7.0094 17.6212 6.756C17.5666 6.49656 17.4927 6.24156 17.4 5.99315C17.3646 5.97911 17.3267 5.97212 17.2886 5.97257H17.1789C16.9499 5.97524 16.7228 6.01281 16.5052 6.084C16.2649 6.15369 16.0299 6.24078 15.8023 6.34457C15.5754 6.44614 15.3544 6.56061 15.1406 6.68743C14.9263 6.81429 14.736 6.936 14.568 7.04915C12.8858 6.58029 11.1074 6.58029 9.42515 7.04915C9.25372 6.936 9.06687 6.81429 8.85258 6.68743C8.63597 6.55921 8.41153 6.4447 8.18058 6.34457C7.95337 6.2383 7.7177 6.15114 7.47601 6.084C7.26242 6.01329 7.03926 5.97571 6.81429 5.97257H6.70458C6.66702 5.97225 6.62976 5.97924 6.59486 5.99315C6.50045 6.24187 6.42313 6.49675 6.36344 6.756C6.31009 7.01027 6.28309 7.26935 6.28287 7.52915C6.28296 7.73138 6.30016 7.93324 6.33429 8.13258C6.36662 8.33196 6.42007 8.52735 6.49372 8.71543C6.14842 9.08762 5.87936 9.52383 5.70172 9.99943C5.52524 10.4714 5.43635 10.9716 5.43944 11.4754C5.42538 12.1926 5.52371 12.9075 5.73086 13.5943C5.91225 14.1582 6.21408 14.6758 6.61544 15.1114C7.03026 15.5328 7.52986 15.8612 8.08115 16.0749C8.73413 16.3251 9.41811 16.4855 10.1143 16.5514C9.91979 16.7274 9.76544 16.9431 9.66172 17.184C9.56305 17.4223 9.49564 17.6724 9.46115 17.928C9.09453 18.1039 8.69349 18.1964 8.28687 18.1989C7.90903 18.2134 7.53632 18.1078 7.22229 17.8972C6.92064 17.6741 6.66507 17.3946 6.46972 17.0743C6.38262 16.9395 6.28519 16.8117 6.17829 16.692C6.06536 16.5663 5.94081 16.4515 5.80629 16.3491C5.67374 16.2501 5.52843 16.1694 5.37429 16.1092C5.22244 16.0425 5.05841 16.0081 4.89258 16.008C4.85241 16.0091 4.81234 16.0125 4.77258 16.0183C4.71822 16.0184 4.66408 16.0253 4.61144 16.0389C4.56482 16.0511 4.52071 16.0714 4.48115 16.0989C4.46333 16.1087 4.44842 16.1231 4.43789 16.1406C4.42736 16.158 4.42159 16.1779 4.42115 16.1983C4.42551 16.2464 4.44036 16.293 4.46465 16.3347C4.48893 16.3765 4.52207 16.4124 4.56172 16.44C4.65429 16.5143 4.73144 16.5714 4.79315 16.6114L4.82229 16.632C4.95641 16.7349 5.08408 16.846 5.20458 16.9646C5.31733 17.0626 5.41804 17.1737 5.50458 17.2954C5.5951 17.4137 5.67269 17.5412 5.73601 17.676C5.80915 17.8097 5.88629 17.964 5.96744 18.1389C6.15489 18.6125 6.48887 19.0137 6.92058 19.284C7.37379 19.5272 7.88243 19.6483 8.39658 19.6354C8.57132 19.6354 8.74591 19.6251 8.91944 19.6046C9.09087 19.5772 9.26229 19.548 9.43372 19.5137V21.2572C9.43682 21.3276 9.42498 21.398 9.39898 21.4636C9.37298 21.5292 9.33341 21.5885 9.28287 21.6377C9.23208 21.686 9.17197 21.7233 9.10623 21.7475C9.0405 21.7716 8.97052 21.7821 8.90058 21.7783H8.83887C6.50699 21.025 4.52068 19.4638 3.23764 17.376C1.95459 15.2882 1.45912 12.8109 1.84043 10.3902C2.22175 7.96947 3.4548 5.76444 5.31754 4.17215C7.18028 2.57986 9.55032 1.70494 12.0009 1.70494C14.4514 1.70494 16.8215 2.57986 18.6842 4.17215C20.5469 5.76444 21.78 7.96947 22.1613 10.3902C22.5426 12.8109 22.0471 15.2882 20.7641 17.376C19.4811 19.4638 17.4948 21.025 15.1629 21.7783V21.7834Z"/></svg>

<svg width="24" height="24" viewBox="0 0 24 24" xmlns="http://www.w3.org/2000/svg" fill="currentColor"><path d="M12 0a12 12 0 1 0 0 24 12 12 0 0 0 0-24zm3.163 21.783h-.093a.513.513 0 0 1-.382-.14.513.513 0 0 1-.14-.372v-1.406c.006-.467.01-.94.01-1.416a3.693 3.693 0 0 0-.151-1.028 1.832 1.832 0 0 0-.542-.875 8.014 8.014 0 0 0 2.038-.471 4.051 4.051 0 0 0 1.466-.964c.407-.427.71-.943.885-1.506a6.77 6.77 0 0 0 .3-2.13 4.138 4.138 0 0 0-.26-1.476 3.892 3.892 0 0 0-.795-1.284 2.81 2.81 0 0 0 .162-.582c.033-.2.05-.402.05-.604 0-.26-.03-.52-.09-.773a5.309 5.309 0 0 0-.221-.763.293.293 0 0 0-.111-.02h-.11c-.23.002-.456.04-.674.111a5.34 5.34 0 0 0-.703.26 6.503 6.503 0 0 0-.661.343c-.215.127-.405.249-.573.362a9.578 9.578 0 0 0-5.143 0 13.507 13.507 0 0 0-.572-.362 6.022 6.022 0 0 0-.672-.342 4.516 4.516 0 0 0-.705-.261 2.203 2.203 0 0 0-.662-.111h-.11a.29.29 0 0 0-.11.02 5.844 5.844 0 0 0-.23.763c-.054.254-.08.513-.081.773 0 .202.017.404.051.604.033.199.086.394.16.582A3.888 3.888 0 0 0 5.702 10a4.142 4.142 0 0 0-.263 1.476 6.871 6.871 0 0 0 .292 2.12c.181.563.483 1.08.884 1.516.415.422.915.75 1.466.964.653.25 1.337.41 2.033.476a1.828 1.828 0 0 0-.452.633 2.99 2.99 0 0 0-.2.744 2.754 2.754 0 0 1-1.175.27 1.788 1.788 0 0 1-1.065-.3 2.904 2.904 0 0 1-.752-.824 3.1 3.1 0 0 0-.292-.382 2.693 2.693 0 0 0-.372-.343 1.841 1.841 0 0 0-.432-.24 1.2 1.2 0 0 0-.481-.101c-.04.001-.08.005-.12.01a.649.649 0 0 0-.162.02.408.408 0 0 0-.13.06.116.116 0 0 0-.06.1.33.33 0 0 0 .14.242c.093.074.17.131.232.171l.03.021c.133.103.261.214.382.333.112.098.213.209.3.33.09.119.168.246.231.381.073.134.15.288.231.463.188.474.522.875.954 1.145.453.243.961.364 1.476.351.174 0 .349-.01.522-.03.172-.028.343-.057.515-.091v1.743a.5.5 0 0 1-.533.521h-.062a10.286 10.286 0 1 1 6.324 0v.005z"/></svg>
